Numix/24x24/categories/applications-viewers.svg

<?xml version="1.0" encoding="UTF-8" standalone="no"?>
<svg
   xmlns:dc="http://purl.org/dc/elements/1.1/"
   xmlns:cc="http://creativecommons.org/ns#"
   xmlns:rdf="http://www.w3.org/1999/02/22-rdf-syntax-ns#"
   xmlns:svg="http://www.w3.org/2000/svg"
   xmlns="http://www.w3.org/2000/svg"
   xmlns:sodipodi="http://sodipodi.sourceforge.net/DTD/sodipodi-0.dtd"
   xmlns:inkscape="http://www.inkscape.org/namespaces/inkscape"
   width="24"
   height="24"
   viewBox="0 0 24 24"
   id="svg2"
   version="1.1"
   inkscape:version="0.91 r"
   sodipodi:docname="applications-viewers.svg">
  <metadata
     id="metadata12">
    <rdf:RDF>
      <cc:Work
         rdf:about="">
        <dc:format>image/svg+xml</dc:format>
        <dc:type
           rdf:resource="http://purl.org/dc/dcmitype/StillImage" />
        <dc:title></dc:title>
      </cc:Work>
    </rdf:RDF>
  </metadata>
  <defs
     id="defs10" />
  <sodipodi:namedview
     pagecolor="#ffffff"
     bordercolor="#666666"
     borderopacity="1"
     objecttolerance="10"
     gridtolerance="10"
     guidetolerance="10"
     inkscape:pageopacity="0"
     inkscape:pageshadow="2"
     inkscape:window-width="1680"
     inkscape:window-height="1026"
     id="namedview8"
     showgrid="true"
     inkscape:zoom="10.727273"
     inkscape:cx="41.008748"
     inkscape:cy="19.174374"
     inkscape:window-x="0"
     inkscape:window-y="24"
     inkscape:window-maximized="1"
     inkscape:current-layer="svg2">
    <inkscape:grid
       type="xygrid"
       id="grid4140" />
  </sodipodi:namedview>
  <path
     style="fill:#4cb29c"
     d="m 11.995473,6.499999 c -0.18749,0 -0.366458,0.017042 -0.549685,0.025562 C 9.2342643,6.6107664 7.5255537,7.1944223 6.3409606,7.8036404 5.0583624,8.4597207 4.3126654,9.201007 4.3126654,9.201007 c -0.4175907,0.438808 -0.4175907,1.226956 0.00426,1.661503 0.4261124,0.438807 1.1931148,0.438807 1.6192272,0.0085 0,0 0.3153238,-0.31952 1.0269307,-0.732766 C 6.7542885,10.72192 6.6520215,11.348179 6.6520215,12 c 0,3.024788 2.4075361,5.500001 5.3434505,5.500001 2.935914,0 5.343449,-2.475213 5.343449,-5.500001 0,-0.656081 -0.102267,-1.27808 -0.311062,-1.861736 0.707346,0.413246 1.026931,0.732766 1.026931,0.732766 0.421851,0.443067 1.201637,0.447327 1.62775,0.0085 0.426112,-0.438808 0.421851,-1.2354761 -0.0043,-1.6700241 0,0 -0.749958,-0.7412854 -2.028294,-1.4016267 C 16.465392,7.1986823 14.75242,6.6192864 12.545157,6.5340811 12.366191,6.51278 12.1787,6.5085201 11.995473,6.5085201 Z m 0,1.7296678 c 1.700188,0 4.052329,0.8009302 4.052329,3.7703332 0,2.598762 -1.602183,4.136717 -4.052329,4.136717 -2.4160579,0 -4.0182407,-1.576298 -4.0182407,-4.136717 0,-2.637103 2.3180517,-3.7703332 4.0182407,-3.7703332 z"
     id="path4"
     inkscape:connector-curvature="0" />
  <path
     style="fill:none;stroke:#4cb29c;stroke-width:1.5;stroke-linecap:round;stroke-linejoin:round;stroke-miterlimit:4;stroke-dasharray:none"
     d="M 13.25,12.003386 C 13.25,12.687669 12.69134,13.25 12,13.25 11.308659,13.25 10.75,12.687669 10.75,12.003386 10.75,11.31233 11.308659,10.75 12,10.75 c 0.69134,0 1.25,0.56233 1.25,1.253386 z"
     id="path6"
     inkscape:connector-curvature="0" />
</svg>

<svg width="24" xmlns="http://www.w3.org/2000/svg" height="24" viewBox="0 0 24 24" xmlns:xlink="http://www.w3.org/1999/xlink">
<path style="fill:#4cb29c" d="M 11.996094 6.5 C 11.808594 6.5 11.628906 6.519531 11.445312 6.523438 C 9.234375 6.609375 7.527344 7.191406 6.339844 7.800781 C 5.058594 8.460938 4.3125 9.199219 4.3125 9.199219 C 3.894531 9.636719 3.894531 10.429688 4.320312 10.863281 C 4.742188 11.300781 5.511719 11.300781 5.9375 10.871094 C 5.9375 10.871094 6.253906 10.550781 6.960938 10.136719 C 6.753906 10.722656 6.652344 11.347656 6.652344 12 C 6.652344 15.023438 9.058594 17.5 11.996094 17.5 C 14.933594 17.5 17.339844 15.023438 17.339844 12 C 17.339844 11.347656 17.238281 10.722656 17.027344 10.136719 C 17.738281 10.550781 18.054688 10.871094 18.054688 10.871094 C 18.480469 11.3125 19.253906 11.316406 19.683594 10.882812 C 20.109375 10.441406 20.105469 9.644531 19.675781 9.207031 C 19.675781 9.207031 18.929688 8.46875 17.648438 7.808594 C 16.464844 7.199219 14.753906 6.617188 12.542969 6.53125 C 12.363281 6.511719 12.179688 6.507812 11.996094 6.507812 Z M 11.996094 8.226562 C 13.695312 8.226562 16.050781 9.03125 16.050781 12 C 16.050781 14.597656 14.445312 16.136719 11.996094 16.136719 C 9.582031 16.136719 7.976562 14.5625 7.976562 12 C 7.976562 9.363281 10.296875 8.226562 11.996094 8.226562 Z "/>
<path style="fill:none;stroke:#4cb29c;stroke-linejoin:round;stroke-linecap:round;stroke-width:3.186" d="M 24.998739 24.002069 C 24.998739 24.554084 24.553559 25.001663 24.000922 25.001663 C 23.448285 25.001663 22.997988 24.554084 22.997988 24.002069 C 22.997988 23.450054 23.448285 23.002475 24.000922 23.002475 C 24.553559 23.002475 24.998739 23.450054 24.998739 24.002069 Z " transform="matrix(.76338 0 0 .78548 -6.32585 -6.85302)"/>
</svg>
